public/_vara/icons/dota2.svg

<svg fill="currentColor" viewBox="0 0 24 24"><path d="m9.817 23.607-.346-.294-.468-.04c-.584-.048-.856-.101-1.186-.232l-.258-.103-.278.11c-.236.095-.814.181-1.253.188-.024 0-.064-.056-.089-.125-.028-.07-.077-.137-.115-.15-.035-.012-.297.046-.587.133l-.525.158-.189-.091c-.238-.116-.338-.114-.736.007-.303.094-.341.096-.584.044-.363-.076-.666-.071-1.349.026-.744.106-.76.106-.979-.044a.6.6 0 0 0-.406-.125c-.203 0-.225-.009-.248-.104a.56.56 0 0 1 .043-.277c.112-.278.156-.952.168-2.563l.012-1.505.211.015.208.015.032-.87c.016-.478.032-1.169.035-1.534l.005-.66-.112-.08c-.305-.223-.291-.191-.418-.918a12 12 0 0 1-.146-1.23c-.025-.532-.023-.547.075-.658l.1-.114.248.213c.138.117.255.194.266.17.036-.113-.077-1.461-.135-1.631a1 1 0 0 1-.066-.308c0-.068-.068-.252-.153-.412l-.151-.289.051-.513c.067-.68-.019-1.18-.304-1.782l-.125-.271.079-.673.084-.674-.088-.349-.091-.35.105-.391.101-.393-.115-.38-.119-.379.143-.4c.141-.389.144-.41.141-1.044C.303 2.016.228 1.551.08 1.365c-.127-.162-.106-.273.083-.446C.253.834.328.726.328.681c0-.069.031-.082.221-.086.12 0 .49-.032.823-.07l.607-.073.794.117c.792.115.793.115 1.879.069L5.74.591l.257.155.26.153L7.312.884 8.368.869 8.724.74c.194-.071.505-.195.69-.279a6 6 0 0 1 .73-.257l.398-.105.514.162.514.164.444-.149.442-.149.477.158c.263.086.751.298 1.089.472l.611.312.64-.018c.485-.015.651-.033.677-.078a3 3 0 0 0 .133-.407l.095-.351.605.02c.453.016.859.064 1.601.194l.995.176.259-.104c.14-.057.408-.126.595-.15.313-.042.367-.037.794.071.398.1.535.115 1.082.115.345 0 .703-.015.798-.031.163-.028.19-.017.521.222.193.138.364.273.379.302.017.027.053.173.077.324l.046.278-.209.396c-.117.218-.214.415-.214.438s.048.061.104.088a.7.7 0 0 1 .215.217l.111.17-.025 2.285c-.015 1.257-.04 2.378-.054 2.489l-.027.204-.345-.022-.344-.027-.029.191a3 3 0 0 0-.029.424c0 .192-.03.293-.16.546l-.163.311.09.129c.05.072.221.265.38.43l.292.305-.089.323-.09.325.107.688c.124.827.115 1.035-.088 1.751a6 6 0 0 0-.146.593c0 .075.055.094.427.145.165.021.2.041.2.116 0 .049.026 1.104.06 2.345.107 4.075.117 4.964.067 5.888a13 13 0 0 1-.067.891c-.01.009-.341-.124-.738-.295l-.723-.308-.312.135c-.322.139-.354.175-.396.442-.029.177-.007.169-.8.331l-.467.096-.454-.152c-.42-.141-.477-.151-.808-.129-.247.015-.417.003-.562-.04-.208-.059-.208-.059-.557.102l-.352.159h-1.3c-1.369-.002-1.651.02-2.594.195-.652.12-.881.115-2.022-.022l-.602-.074-.421.096c-.234.054-.47.096-.526.094-.068 0-.224-.101-.451-.294zm-2.533-3.689c1.005-.379 1.834-.695 1.839-.702.013-.014-3.917-3.826-4.439-4.307-.145-.134-.275-.237-.285-.227-.009.011-.329.865-.709 1.895-.42 1.138-.679 1.899-.658 1.931.025.042 2.392 2.091 2.419 2.097.003 0 .828-.309 1.833-.687m13.512-2.089c.523-1.265.936-2.31.922-2.325-.019-.021-9.83-6.646-16.698-11.278l-.551-.371-.9.407c-.497.222-.896.425-.889.447.01.028 3.331 3.51 7.384 7.74l7.368 7.692 1.206-.008 1.209-.008zM19.434 6.972c.173-.962.316-1.781.316-1.821 0-.043-.253-.249-.676-.546-.372-.262-.701-.49-.73-.509-.053-.033-3.902 1.008-3.897 1.053.004.03 4.644 3.599 4.66 3.582.008-.006.154-.799.327-1.759"/></svg>

<svg role="img" viewBox="0 0 24 24" xmlns="http://www.w3.org/2000/svg"><title>Dota 2</title><path d="M 9.817 23.607 L 9.471 23.313 L 9.003 23.273 C 8.419 23.225 8.147 23.172 7.817 23.041 L 7.559 22.938 L 7.281 23.048 C 7.045 23.143 6.467 23.229 6.028 23.236 C 6.004 23.236 5.964 23.18 5.939 23.111 C 5.911 23.041 5.862 22.974 5.824 22.961 C 5.789 22.949 5.527 23.007 5.237 23.094 L 4.712 23.252 L 4.523 23.161 C 4.285 23.045 4.185 23.047 3.787 23.168 C 3.484 23.262 3.446 23.264 3.203 23.212 C 2.84 23.136 2.537 23.141 1.854 23.238 C 1.11 23.344 1.094 23.344 0.875 23.194 C 0.728 23.094 0.648 23.069 0.469 23.069 C 0.266 23.069 0.244 23.06 0.221 22.965 C 0.206 22.906 0.225 22.787 0.264 22.688 C 0.376 22.41 0.42 21.736 0.432 20.125 L 0.444 18.62 L 0.655 18.635 L 0.863 18.65 L 0.895 17.78 C 0.911 17.302 0.927 16.611 0.93 16.246 L 0.935 15.586 L 0.823 15.506 C 0.518 15.283 0.532 15.315 0.405 14.588 C 0.339 14.211 0.274 13.658 0.259 13.358 C 0.234 12.826 0.236 12.811 0.334 12.7 L 0.434 12.586 L 0.682 12.799 C 0.82 12.916 0.937 12.993 0.948 12.969 C 0.984 12.856 0.871 11.508 0.813 11.338 C 0.775 11.238 0.747 11.101 0.747 11.03 C 0.747 10.962 0.679 10.778 0.594 10.618 L 0.443 10.329 L 0.494 9.816 C 0.561 9.136 0.475 8.636 0.19 8.034 L 0.065 7.763 L 0.144 7.09 L 0.228 6.416 L 0.14 6.067 L 0.049 5.717 L 0.154 5.326 L 0.255 4.933 L 0.14 4.553 L 0.021 4.174 L 0.164 3.774 C 0.305 3.385 0.308 3.364 0.305 2.73 C 0.303 2.016 0.228 1.551 0.08 1.365 C -0.047 1.203 -0.026 1.092 0.163 0.919 C 0.253 0.834 0.328 0.726 0.328 0.681 C 0.328 0.612 0.359 0.599 0.549 0.595 C 0.669 0.595 1.039 0.563 1.372 0.525 L 1.979 0.452 L 2.773 0.569 C 3.565 0.684 3.566 0.684 4.652 0.638 L 5.74 0.591 L 5.997 0.746 L 6.257 0.899 L 7.312 0.884 L 8.368 0.869 L 8.724 0.74 C 8.918 0.669 9.229 0.545 9.414 0.461 C 9.596 0.377 9.927 0.264 10.144 0.204 L 10.542 0.099 L 11.056 0.261 L 11.57 0.425 L 12.014 0.276 L 12.456 0.127 L 12.933 0.285 C 13.196 0.371 13.684 0.583 14.022 0.757 L 14.633 1.069 L 15.273 1.051 C 15.758 1.036 15.924 1.018 15.95 0.973 C 15.97 0.942 16.031 0.758 16.083 0.566 L 16.178 0.215 L 16.783 0.235 C 17.236 0.251 17.642 0.299 18.384 0.429 L 19.379 0.605 L 19.638 0.501 C 19.778 0.444 20.046 0.375 20.233 0.351 C 20.546 0.309 20.6 0.314 21.027 0.422 C 21.425 0.522 21.562 0.537 22.109 0.537 C 22.454 0.537 22.812 0.522 22.907 0.506 C 23.07 0.478 23.097 0.489 23.428 0.728 C 23.621 0.866 23.792 1.001 23.807 1.03 C 23.824 1.057 23.86 1.203 23.884 1.354 L 23.93 1.632 L 23.721 2.028 C 23.604 2.246 23.507 2.443 23.507 2.466 C 23.507 2.489 23.555 2.527 23.611 2.554 C 23.668 2.579 23.764 2.677 23.826 2.771 L 23.937 2.941 L 23.912 5.226 C 23.897 6.483 23.872 7.604 23.858 7.715 L 23.831 7.919 L 23.486 7.897 L 23.142 7.87 L 23.113 8.061 C 23.097 8.164 23.084 8.353 23.084 8.485 C 23.084 8.677 23.054 8.778 22.924 9.031 L 22.761 9.342 L 22.851 9.471 C 22.901 9.543 23.072 9.736 23.231 9.901 L 23.523 10.206 L 23.434 10.529 L 23.344 10.854 L 23.451 11.542 C 23.575 12.369 23.566 12.577 23.363 13.293 C 23.282 13.58 23.217 13.846 23.217 13.886 C 23.217 13.961 23.272 13.98 23.644 14.031 C 23.809 14.052 23.844 14.072 23.844 14.147 C 23.844 14.196 23.87 15.251 23.904 16.492 C 24.011 20.567 24.021 21.456 23.971 22.38 C 23.944 22.862 23.913 23.262 23.904 23.271 C 23.894 23.28 23.563 23.147 23.166 22.976 L 22.443 22.668 L 22.131 22.803 C 21.809 22.942 21.777 22.978 21.735 23.245 C 21.706 23.422 21.728 23.414 20.935 23.576 L 20.468 23.672 L 20.014 23.52 C 19.594 23.379 19.537 23.369 19.206 23.391 C 18.959 23.406 18.789 23.394 18.644 23.351 C 18.436 23.292 18.436 23.292 18.087 23.453 L 17.735 23.612 L 16.435 23.612 C 15.066 23.61 14.784 23.632 13.841 23.807 C 13.189 23.927 12.96 23.922 11.819 23.785 L 11.217 23.711 L 10.796 23.807 C 10.562 23.861 10.326 23.903 10.27 23.901 C 10.202 23.901 10.046 23.8 9.819 23.607 L 9.817 23.607 Z M 7.284 19.918 C 8.289 19.539 9.118 19.223 9.123 19.216 C 9.136 19.202 5.206 15.39 4.684 14.909 C 4.539 14.775 4.409 14.672 4.399 14.682 C 4.39 14.693 4.07 15.547 3.69 16.577 C 3.27 17.715 3.011 18.476 3.032 18.508 C 3.057 18.55 5.424 20.599 5.451 20.605 C 5.454 20.605 6.279 20.296 7.284 19.918 Z M 20.796 17.829 C 21.319 16.564 21.732 15.519 21.718 15.504 C 21.699 15.483 11.888 8.858 5.02 4.226 L 4.469 3.855 L 3.569 4.262 C 3.072 4.484 2.673 4.687 2.68 4.709 C 2.69 4.737 6.011 8.219 10.064 12.449 L 17.432 20.141 L 18.638 20.133 L 19.847 20.125 L 20.796 17.829 Z M 19.434 6.972 C 19.607 6.01 19.75 5.191 19.75 5.151 C 19.75 5.108 19.497 4.902 19.074 4.605 C 18.702 4.343 18.373 4.115 18.344 4.096 C 18.291 4.063 14.442 5.104 14.447 5.149 C 14.451 5.179 19.091 8.748 19.107 8.731 C 19.115 8.725 19.261 7.932 19.434 6.972 Z"/></svg>
